X:1
T:Letter from LBJ
M:4/4
L:1/8
K:C
 A,A, A,C EE EA,| DD DE F3/2 G/2 FD| E3/2 E/2 EE ED CD| E8| A,A, A,C EF EC|\
 DD DE FG FD| E3/2 E/2 EF ED C/2 B,3/2| A,6 z A| AA Ac G3/2 G/2 GE|\
 FF ED E3/2 F/2 EC| EE EF ED CD| E8| AA Ac G3/2 A/2 GE| FF ED EF EC|\
 EE EF ED CB,| A,6 z2|
